!!!!SEGMENT: pl-kk--kk-i-350--003_anonim--surge-propera.krn
!!!cenid: 17xx:2063
!!!COM: Anonim
!!!COM-rismid: pe30004985
!!!CDT:
!!!CNT:
!!!OTL: Surge propera
!!!PDT:
!!!AGN: Sacred
!!!SMS-siglum: PL-Kk
!!!SMS-shelfmark: Kk.I.350
!!!SMS-shelfwork: 003 W
!!!SMS-variant:
!!!SMS-altvar:
!!!NIFC-rismid: 1001145760
!!!URL-scan: http://repozytorium.nifc.pl/skany/pl-kk-nut--i-350
!!!ONB-nifc: UWAGA: utwory w zbiorze: 1. Gaudeamus, 2. Alleluia assumpta est Maria, 3. Surge propera, 4. Gaudeamus, 5. Propter veritatem, 6. Quae est ista, 7. Gaudeamus omnes, 8. Alleluia assumpta est Maria, 9. Nigra sum
!!!AIN: 1 alto 1 empty 1 tenor 1 vox
!!!key:
**kern	**text	**kern	**text	**kern	**text	**kern	**text
*part4	*part4	*part3	*part3	*part2	*part2	*part1	*part1
*staff4	*staff4	*staff3	*staff3	*staff2	*staff2	*staff1	*staff1
*Iempty	*	*Itenor	*	*Ialto	*	*Ivox	*
*I"Baſso Eripieno	*	*I"Tenore	*	*I"Alto	*	*I"Canto	*
*I'B rip	*	*I'T	*	*I'A	*	*I'S	*
*clefF4	*	*clefC4	*	*clefC3	*	*clefC1	*
*k[]	*	*k[]	*	*k[]	*	*k[]	*
*C:	*	*C:	*	*C:	*	*C:	*
*M3/2	*	*M3/2	*	*M3/2	*	*M3/2	*
=1	=1	=1	=1	=1	=1	=1	=1
*	*	*2\right	*	*	*	*	*
2C/	Sur-	2e\	Sur-	4c\	Sur-	4g\	Sur-
.	.	.	.	4f\	.	4cc\	.
*2\right	*	*	*	*2\right	*	*2\right	*
2E\	.	2c\	.	2g\	.	2ee\	.
2G\	.	2B\	.	2f\	.	2dd\	.
=2	=2	=2	=2	=2	=2	=2	=2
2c\	-ge	1G/	-ge	1e\	-ge	1cc\	-ge
2C/	.	.	.	.	.	.	.
2C/	pro-	2c\	pro-	2g\	pro-	2ee\	pro-
=3	=3	=3	=3	=3	=3	=3	=3
1G\	.	1B\	.	2.f\	.	2.dd\	.
.	.	.	.	4e\	.	4cc\	.
4G\	-pe-	4B\	-pe-	4f\	-pe-	4dd\	-pe-
4GG/	-ra	4G\	-ra	4d\	-ra	4b\	-ra
=4	=4	=4	=4	=4	=4	=4	=4
4C/	a-	2G/	a-	4e\	a-	4cc\	a-
4BB/	.	.	.	4f\	.	4dd\	.
2C/	-mi-	2c\	-mi-	2g\	-mi-	2ee\	-mi-
2C/	-ca	2c\	-ca	2g\	-ca	2ee\	-ca
=5	=5	=5	=5	=5	=5	=5	=5
1F\	me-	1c\	me-	4a\	me-	4ff\	me-
.	.	.	.	4g\	.	4ee\	.
.	.	.	.	4f\	.	4dd\	.
.	.	.	.	4g\	.	4ee\	.
4F\	.	2A\	.	4f\	.	4dd\	.
4F#X\	.	.	.	4e\	.	4cc\	.
=6	=6	=6	=6	=6	=6	=6	=6
1G\	-a	1G/	-a	1d\	-a	1b\	-a
2r	.	2r	.	2r	.	2r	.
!	!	!	!	!LO:LB:g=original	!	!LO:LB:g=original	!
=7	=7	=7	=7	=7	=7	=7	=7
2Fn\	co-	2d\	co-	2d\	co-	2b\	co-
2E\	-lum-	2c\	-lum-	2e\	-lum-	2cc\	-lum-
2D\	-ba	2B\	-ba	2f\	-ba	2dd\	-ba
!LO:LB:g=original	!	!LO:LB:g=original	!	!	!	!	!
=8	=8	=8	=8	=8	=8	=8	=8
2C/	me-	2G/	me-	8g\L	me-	8ee\L	me-
.	.	.	.	8f\	.	8dd\	.
.	.	.	.	8e\	.	8cc\	.
.	.	.	.	8f\J	.	8dd\J	.
2C/	-a	2G/	-a	2e\	-a	2cc\	-a
2C/	for-	2c\	for-	2g\	for-	2ee\	for-
=9	=9	=9	=9	=9	=9	=9	=9
2F\	-mo-	2d\	-mo-	2d\	-mo-	2b\	-mo-
2E\	.	2c\	.	2e\	.	2cc\	.
2D\	-sa	2B\	-sa	2f\	-sa	2dd\	-sa
=10	=10	=10	=10	=10	=10	=10	=10
2C/	me-	2G/	me-	2f\	me-	2dd\	me-
2C/	-a	2G/	-a	2e\	-a	2cc\	-a
4r	.	4r	.	4r	.	4r	.
4C/	et	4c\	et	4c/	et	4g/	et
=11	=11	=11	=11	=11	=11	=11	=11
4A\	ve-	[y1F/	ve-	4cc\	ve-	1.cc\	ve-
4G\	.	.	.	4b\	.	.	.
4F\	.	.	.	4a\	.	.	.
4E\	.	.	.	4g\	.	.	.
!	!	!LO:N:xstem:cue	!	!	!	!	!
4D\	.	4F/]	.	4f\	.	.	.
4C\	.	4F#X/	.	4e\	.	.	.
=12	=12	=12	=12	=12	=12	=12	=12
2G\	.	2G/	.	2e\	.	2cc\	.
2GG/	-ni	2G/	-ni,	2d\	-ni	2b\	-ni
2r	.	2r	.	2r	.	2r	.
!	!	!	!	!LO:LB:g=original	!	!LO:LB:g=original	!
=13	=13	=13	=13	=13	=13	=13	=13
2G\	iam	2d\	iam	2g\	iam	2b\	iam
2A\	e-	2d\	e-	2f#X\	e-	2cc\	e-
2B\	-nim	2G/	-nim	2fn\	-nim	2dd\	-nim
!LO:LB:g=original	!	!	!	!	!	!	!
=14	=14	=14	=14	=14	=14	=14	=14
2c\	hy-	1G/	hy-	1e\	hy-	1cc\	hy-
2C/	.	.	.	.	.	.	.
2G\	-ems	2G/	-ems	2d\	-ems	2b\	-ems
!	!	!LO:LB:g=original	!	!	!	!	!
=15	=15	=15	=15	=15	=15	=15	=15
2B\	tran-	2G/	tran-	1f\	tran-	1dd\	tran-
2G\	.	2B\	.	.	.	.	.
2c\	.	2c\	.	2e\	.	2cc\	.
=16	=16	=16	=16	=16	=16	=16	=16
1G\	-sil	1G/	-sil	1d\	-sil	2b\	-sil
.	.	.	.	.	.	2r	.
2r	.	2r	.	2r	.	2r	.
=17	=17	=17	=17	=17	=17	=17	=17
1G\	im-	2d\	im-	2d\	im-	2b\	im-
.	.	2c\	.	2e\	.	2cc\	.
2G\	-ber	2B\	-ber	2f\	-ber	2dd\	-ber
=18	=18	=18	=18	=18	=18	=18	=18
2.c\	a-	2.e\	a-	2.e\	a-	2.cc\	a-
4G\	-bi-	4d\	-bi-	4f\	-bi-	4dd\	-bi-
2C/	-it	2c\	-it	2g\	-it	2ee\	-it
=19	=19	=19	=19	=19	=19	=19	=19
2C/	et	2c\	et	4a\	et	4ff\	et
.	.	.	.	4g\	.	4ee\	.
2F\	re-	4c\	re-	4g\	re-	4ee\	re-
.	.	4B\	.	4f\	.	4dd\	.
2F#X\	.	4B\	.	4f\	.	4dd\	.
.	.	4c\	.	4e\	.	4cc\	.
!	!	!	!	!LO:LB:g=original	!	!LO:LB:g=original	!
=20	=20	=20	=20	=20	=20	=20	=20
2G\	-ceſ-	2G/	-ceſ-	2e\	-ceſ-	2cc\	-ceſ-
2GG/	-sit	2G/	-sit	2d\	-sit	2b\	-sit
2r	.	2r	.	2r	.	2r	.
!LO:LB:g=original	!	!	!	!	!	!	!
=21	=21	=21	=21	=21	=21	=21	=21
2G#X\	flo-	2B\	flo-	2e\	flo-	2dd\	flo-
2E\	-res	2G#X\	-res	2e\	-res	2b\	-res
2G#\	ap-	2B\	ap-	2e\	ap-	2dd\	ap-
!	!	!LO:LB:g=original	!	!	!	!	!
=22	=22	=22	=22	=22	=22	=22	=22
2A\	-pa-	2c\	-pa-	2e\	-pa-	2a\	-pa-
2E\	.	2B\	.	2d\	.	2g#X\	.
2C/	-ru	2A\	-ru	2e\	-ru	2a\	-ru
=23	=23	=23	=23	=23	=23	=23	=23
2AA/	e-	2A\	e-	2e\	e-	2cc\	e-
2A\	-runt	2c\	-runt	2e\	-runt	2ee\	-runt
2A\	in	2c\	in	2e\	in	2ee\	in
=24	=24	=24	=24	=24	=24	=24	=24
2E\	ter-	1B\	ter-	1e\	ter-	1dd\	ter-
2G#X\	.	.	.	.	.	.	.
2A\	-ra	2A/	-ra	2e\	-ra	2cc\	-ra
=25	=25	=25	=25	=25	=25	=25	=25
2E\	nos-	2A/	nos-	2e\	nos-	2cc\	nos-
2E\	-tra	2G#X/	-tra	2e\	-tra	2b\	-tra
2r	.	2r	.	2r	.	2r	.
=26	=26	=26	=26	=26	=26	=26	=26
4B\	tem-	4d\	tem-	2e\	tem-	4g#X/	tem-
4A\	.	4c\	.	.	.	4a/	.
4G#X\	-pus	4B\	-pus	2e\	-pus	4b\	-pus
4F\	.	4A\	.	.	.	4cc\	.
4E\	pu-	4G#X\	pu-	2e\	pu	4dd\	pu-
4G#\	.	4B\	.	.	.	4b\	.
!	!	!	!	!LO:PB:g=original	!	!LO:PB:g=original	!
=27	=27	=27	=27	=27	=27	=27	=27
2A\	-ta-	2c\	-ta-	2e\	-ta-	2a\	-ta-
2E\	.	2B\	.	2d\	.	2b\	.
2C/	-ti-	2A\	-ti-	2e\	-ti-	2cc\	-ti-
!LO:LB:g=original	!	!LO:PB:g=original	!	!	!	!	!
=28	=28	=28	=28	=28	=28	=28	=28
2D\	-o-	2B\	-o-	2f\	-o-	2dd\	-o-
1E\	.	2A\	.	1e\	.	2cc\	.
.	.	2G#X\	.	.	.	2b\	.
=29	=29	=29	=29	=29	=29	=29	=29
1AA/	-nis	1A\	-nis	1e\	-nis	1cc\	-nis
2r	.	2r	.	2r	.	2r	.
=30	=30	=30	=30	=30	=30	=30	=30
!	!	!	!	!LO:SIC:o:v="c" dopisane ołówkiem	!	!	!
2c\	ad-	2.Gn/	ad-	2.b\	ad-	2.ee\	ad-
4G\	.	.	.	.	.	.	.
4E\	-ve-	4G/	-ve-	4f\	-ve-	4cc\	-ve-
2C/	-nit	2c\	-nit	2g\	-nit	2ee\	-nit
=31	=31	=31	=31	=31	=31	=31	=31
2G\	vox	2B\	vox	2f\	vox	2dd\	vox
2B\	tur-	2d\	tur-	2f\	tur-	2dd\	tur-
!LO:SIC:t:v=2 przerobiona na 4	!	!	!	!	!	!	!
4A\	-tu-	4c\	-tu-	4f\	-tu-	4dd\	-tu-
4G\	-ris	4B\	-ris	4f\	-ris	4dd\	-ris
=32	=32	=32	=32	=32	=32	=32	=32
2c\	au-	2c\	au-	2e\	au-	2ee\	au-
2A\	-di-	2c\	-di-	2e\	-di-	2cc\	-di-
2F#X\	-ta	2A\	-ta	2f#X\	-ta	2dd\	-ta
=33	=33	=33	=33	=33	=33	=33	=33
1G\	est	1B\	est	1g\	est	1dd\	est
2G\	in	2B\	in	2g\	in	2dd\	in
!LO:PB:g=original	!	!	!	!LO:LB:g=original	!	!LO:LB:g=original	!
=34	=34	=34	=34	=34	=34	=34	=34
4C/	ter-	4c\	ter-	4e\	ter-	1g\	ter-
4BB/	.	4d\	.	4d\	.	.	.
4C/	.	4c\	.	4e\	.	.	.
4D/	.	4B\	.	4f\	.	.	.
4E\	-ra	4c\	-ra	4g\	-ra	2g/	-ra
4F\	.	4d\	.	4a\	.	.	.
!	!	!LO:LB:g=original	!	!	!	!	!
=35	=35	=35	=35	=35	=35	=35	=35
2G\	nos-	2B\	nos-	2g\	nos-	2dd\	nos-
2G\	-tra	2B\	-tra	2g\	-tra	2dd\	-tra
2r	.	2r	.	2r	.	2r	.
=36	=36	=36	=36	=36	=36	=36	=36
4d\	fi-	4B\	fi-	4fn\	fi-	2g/	fi-
4c\	.	4c\	.	4e\	.	.	.
4B\	-cus	4B\	-cus	4d\	-cus	2g/	-cus
4A\	.	4c\	.	4c\	.	.	.
4G\	pro-	4B\	pro-	4d\	pro-	2g/	pro-
4F\	.	4A\	.	4f\	.	.	.
=37	=37	=37	=37	=37	=37	=37	=37
4E\	.	2.G/	.	4g\	.	4cc\	.
4F\	.	.	.	4a\	.	4dd\	.
4E\	.	.	.	4g\	.	4cc\	.
4D\	-tu-	4G/	-tu-	4f\	-tu-	4b\	-tu-
2C/	-lit	2G/	-lit	2e\	-lit	2cc\	-lit
=38	=38	=38	=38	=38	=38	=38	=38
4C/	gros-	1G/	groſ-	4e\	gros-	4cc\	gros-
4BB/	.	.	.	4d\	.	4dd\	.
4C/	.	.	.	4e\	.	4cc\	.
4D/	.	.	.	4f\	.	4b\	.
!LO:LB:g=original	!	!	!	!	!	!	!
4E\	-sos	2G/	-sos	4g\	-sos	4cc\	-sos
4F\	.	.	.	4a\	.	4dd\	.
!	!	!	!	!LO:LB:g=original	!	!	!
=39	=39	=39	=39	=39	=39	=39	=39
2G\	su-	2B\	su-	2g\	su-	2dd\	su-
2G\	-os	2B\	-os	2g\	-os	2dd\	-os
2G\	et	2B\	vi-	2g\	et	2dd\	vi-
!	!	!	!	!	!	!LO:LB:g=original	!
=40	=40	=40	=40	=40	=40	=40	=40
2.B\	vi-	2.d\	.	2.f\	vi-	2.g/	.
4A\	-ne-	4c\	-ne-	4g\	-ne-	4dd\	-ne-
4G\	-ae	4B\	-ae	4g\	-ae	4dd\	-ae
4G\	flo-	4B\	flo-	4g\	flo-	4dd\	flo-
=41	=41	=41	=41	=41	=41	=41	=41
4c\	-ren-	2c\	-ren-	2g\	-ren-	2ee\	-ren-
4G\	.	.	.	.	.	.	.
4E\	-tes	2c\	-tes	2g\	-tes	2ee\	-tes
4G\	.	.	.	.	.	.	.
!	!	!LO:LB:g=original	!	!	!	!	!
4E\	de-	2c\	de-	2g\	de-	2ee\	de-
4C\	.	.	.	.	.	.	.
=42	=42	=42	=42	=42	=42	=42	=42
4G\	-de-	4B\	-de-	4g\	-de-	4dd\	-de-
4A\	.	4c\	.	4e\	.	4cc\	.
4B\	-runt	4d\	-runt	4d\	-runt	4b\	-runt
4A\	.	4c\	.	4e\	.	4cc\	.
4B\	o-	4d\	o-	4f\	o-	4dd\	o-
4G\	.	4B\	.	4d\	.	4b\	.
!LO:LB:g=original	!	!	!	!	!	!	!
=43	=43	=43	=43	=43	=43	=43	=43
4c\	-do-	4e\	-do-	2e\	-do-	2cc\	-do-
4B\	.	4d\	.	.	.	.	.
4A\	.	4c\	.	2g\	.	2ee\	.
4G\	.	4B\	.	.	.	.	.
4F\	-rem	4A\	-rem	2g\	-rem	2ee\	-rem
4E\	.	4G\	.	.	.	.	.
=44	=44	=44	=44	=44	=44	=44	=44
2F\	su-	2d\	su-	2a\	su-	2ff\	su-
2G\	.	2c\	.	1g\	.	2ee\	.
2GG/	.	2B\	.	.	.	2dd\	.
=45	=45	=45	=45	=45	=45	=45	=45
1C/	-um	1.c\	-um	1.g\	-um	1.ee\	-um
2r	.	.	.	.	.	.	.
==	==	==	==	==	==	==	==
*-	*-	*-	*-	*-	*-	*-	*-
!!!system-decoration: [(s1,s2,s3,s4)]
!!!EED: Leszek Kubiak
!!!EST: 2021-02-26
!!!ENC: Tomasz Grochalski
!!!END: 2021-02-17
